X:1
T:Title
%%score [ ( 1 2 ) ( 3 4 ) ]
L:1/8
Q:1/4=120
M:2/2
K:C
V:1 treble nm=" "
V:2 treble 
V:3 bass nm="Midi_74"
V:4 bass 
V:1
[K:D]"^Charles Wesley" A2 A2 B2 c2 |"^Christ, whose glory fills the skies" d2 d2 c4 | B2 d2 A2 F2 | %3
w: Christ, whose glo- ry|fills the skies,|Christ, the true, the|
w: Dark and cheer- less|is the morn|un- ac- com- pa-|
 G2 E2"^Melody from Werner's""^Choralbuch" D4 | F2 F2 E2 F2 | G2 G2 F4 | F2 B2 ^A2 B2 | c2 c2 B4 | %8
w: on- ly light,|Sun of Right- eous-|ness, a- rise,|tri- umph o'er the|shades of night;|
w: nied by thee;|joy- less is the|day's re- turn,|till thy mer- cy's|beams I see,|
 d2 B2 A2 F2 | G2 G2 F4 | B2 B2 A2 F2 | E2 E2 D4 |[M:4/4] A2 A2 B2 c2 | d2 d2 c4 | B2 d2 A2 F2 | %15
w: Day- spring from on|high, be near;|Day- star, in my|heart ap- pear.|Vi- sit then this|soul of mine,|pierce the gloom of|
w: till they in- ward|light im- part,|glad my eyes, and|warm my heart.||||
 G2 E2 D4 | F2 F2 E2 F2 | G2 G2 F4 | F2 B2 ^A2 B2 | c2 c2 B4 | %20
w: sin and grief;|fill me, ra- dian-|cy di- vine,|scat- ter all my|un- be- lief;|
w: |||||
"^This edition produced by Andrew Sims 2013" d2 B2 A2 F2 | G2 G2 F4 | B2 B2 c2 d2 | d2 c2 d4 |] %24
w: ||||
w: ||||
V:2
[K:D] D2 D2 D2 G2 | F2 F2 E4 | D2 F2 E2 D2 | D2 C2 D4 | D2 D2 C2 D2 | D2 E2 D4 | D2 F2 FE D2 | %7
w: |||||||
 G2 F2 D4 | D2 D2 C2 D2 | D2 ED C4 | F2 D2 E2 D2 | D2 C2 D4 |[M:4/4] x8 | x8 | x8 | x8 | x8 | x8 | %18
w: |||||||||||
 x8 | x8 | d2 B2 A2 F2 | G2 G2 F4 | B2 B2 A2 F2 | E2 E2 D4 |] %24
w: ||more and more thy-|self dis- play,|shi- ning to the|per- fect day.|
V:3
[K:D] F,2 A,2 G,2 G,2 | A,2 A,2 A,4 | F,2 F,2 A,2 A,2 | B,2 A,2 F,4 | A,2 A,2 A,2 A,2 | %5
 B,2 A,2 A,4 | A,2 D2 C2 B,2 | B,2 ^A,2 B,4 | B,2 G,2 E,2 B,2 | B,2 CB, ^A,4 | B,2 F,2 A,2 A,2 | %11
 B,2 A,2 F,4 |[M:4/4] z8 | z8 | z8 | z8 |[M:4/4] z8 | z8 | z8 | z8 |[M:4/4] z8 | z8 | z8 | z8 |] %24
V:4
[K:D] D,2 F,2 G,2 E,2 | D,2 D,2 A,,4 | B,,2 B,,2 C,2 D,2 | G,,2 A,,2 D,4 | D,2 D,2 A,,2 D,2 | %5
 B,,2 C,2 D,4 | D,2 B,,2 F,2 G,2 | E,2 F,2 B,,4 | G,,2 G,,2 A,,2 B,,2 | E,2 E,2 F,4 | %10
 D,2 B,,2 C,2 D,2 | G,,2 A,,2 D,4 |[M:4/4] x8 | x8 | x8 | x8 |[M:4/4] x8 | x8 | x8 | x8 | %20
[M:4/4] x8 | x8 | x8 | x8 |] %24

